assets/img/braze_icons/phone-call-02.svg

<svg fill="none" height="24" viewBox="0 0 24 24" width="24" xmlns="http://www.w3.org/2000/svg"><g clip-rule="evenodd" fill="#801ed7" fill-rule="evenodd"><path d="m12 4c-2.51781 0-4.79269 1.03263-6.42728 2.70004-.38663.39439-1.01976.40068-1.41415.01406-.39438-.38662-.40068-1.01976-.01405-1.41414 1.99525-2.03532 4.77861-3.29996 7.85548-3.29996 3.077 0 5.8603 1.26464 7.8556 3.29996.3866.39438.3803 1.02752-.0141 1.41414s-1.0275.38033-1.4141-.01406c-1.6346-1.66741-3.9095-2.70004-6.4274-2.70004z"/><path d="m12 8c-1.4807 0-2.81009.6424-3.72706 1.66691-.36833.41149-1.00052.44659-1.41205.07822-.41152-.36832-.44654-1.00052-.07822-1.41204 1.28032-1.43049 3.14409-2.33309 5.21733-2.33309 2.0733 0 3.937.9026 5.2174 2.33309.3683.41152.3333 1.04372-.0783 1.41204-.4115.36837-1.0437.33327-1.412-.07822-.917-1.02451-2.2463-1.66691-3.7271-1.66691z"/><path d="m12 12c3.1172 0 7.0703.7294 9.5554 2.7931.6564.545 1.2207 1.506 1.3769 2.3447.1387.7447.1589 1.6924.011 2.4424-.2354 1.1942-1.169 2.1278-2.3631 2.3632-.5887.116-1.266.1013-1.8662.0421-1.4238-.1406-2.5501-1.267-2.6907-2.6907-.0147-.1486-.0146-.3126-.0145-.5034 0-.0421.012-.1015-.0308-.1166-1.2436-.4368-2.582-.6748-3.978-.6748-1.3961 0-2.73444.238-3.97803.6748-.04267.015-.0308.0735-.03078.1166.00007.1908.00014.3548-.01453.5034-.14059 1.4237-1.26695 2.5501-2.69069 2.6907-.59107.0583-1.28334.0728-1.86618-.0421-1.19418-.2354-2.12779-1.169-2.36318-2.3632-.14783-.75-.127705-1.6977.01102-2.4424.15624-.8387.72056-1.7997 1.37687-2.3447 2.48073-2.0601 6.44123-2.7931 9.5555-2.7931z"/></g></svg>

<svg width="24" height="24" viewBox="0 0 24 24" fill="none" xmlns="http://www.w3.org/2000/svg">
<path fill-rule="evenodd" clip-rule="evenodd" d="M12 4C9.48219 4 7.20731 5.03263 5.57272 6.70004C5.18609 7.09443 4.55296 7.10072 4.15857 6.7141C3.76419 6.32748 3.75789 5.69434 4.14452 5.29996C6.13977 3.26464 8.92313 2 12 2C15.077 2 17.8603 3.26464 19.8556 5.29996C20.2422 5.69434 20.2359 6.32748 19.8415 6.7141C19.4471 7.10072 18.814 7.09443 18.4274 6.70004C16.7928 5.03263 14.5179 4 12 4Z" fill="#801ED7"/>
<path fill-rule="evenodd" clip-rule="evenodd" d="M12 8C10.5193 8 9.18991 8.6424 8.27294 9.66691C7.90461 10.0784 7.27242 10.1135 6.86089 9.74513C6.44937 9.37681 6.41435 8.74461 6.78267 8.33309C8.06299 6.9026 9.92676 6 12 6C14.0733 6 15.937 6.9026 17.2174 8.33309C17.5857 8.74461 17.5507 9.37681 17.1391 9.74513C16.7276 10.1135 16.0954 10.0784 15.7271 9.66691C14.8101 8.6424 13.4808 8 12 8Z" fill="#801ED7"/>
<path fill-rule="evenodd" clip-rule="evenodd" d="M12 12C15.1172 12 19.0703 12.7294 21.5554 14.7931C22.2118 15.3381 22.7761 16.2991 22.9323 17.1378C23.071 17.8825 23.0912 18.8302 22.9433 19.5802C22.7079 20.7744 21.7743 21.708 20.5802 21.9434C19.9915 22.0594 19.3142 22.0447 18.714 21.9855C17.2902 21.8449 16.1639 20.7185 16.0233 19.2948C16.0086 19.1462 16.0087 18.9822 16.0088 18.7914C16.0088 18.7493 16.0208 18.6899 15.978 18.6748C14.7344 18.238 13.396 18 12 18C10.6039 18 9.26556 18.238 8.02197 18.6748C7.9793 18.6898 7.99117 18.7483 7.99119 18.7914C7.99126 18.9822 7.99133 19.1462 7.97666 19.2948C7.83607 20.7185 6.70971 21.8449 5.28597 21.9855C4.6949 22.0438 4.00263 22.0583 3.41979 21.9434C2.22561 21.708 1.292 20.7744 1.05661 19.5802C0.90878 18.8302 0.928905 17.8825 1.06763 17.1378C1.22387 16.2991 1.78819 15.3381 2.4445 14.7931C4.92523 12.733 8.88573 12 12 12Z" fill="#801ED7"/>
</svg>
